X:2905
L:1/8
M:3/4
K:G
 DG/B/ | B2 Bc d2 | d2 dc A2 | A2 AB BA | G2 G2 EG | A2 AB BA | A2 AB BA | G2 GA B<c | 
 A2 A2 DG/B/ || B2 Bc d2 | d2 dc A2 | A2 AB BA | G2 G2 EG | A2 AB A2 | A2 AB A2 | G2 GA G2 | 
 G2 G2 (3D/E/F/(3G/A/B/ | B2 Bc d2 | d2 dc cA | A2 AB BA | G2 G2 EG | A2 AB A2 | A2 AB A2 | 
 F/E/F/G/ AB cA | F2 FD GA | B2 Bc d2 | f2 fe dB | cB AG (3FGA | G2 G2 (3D/E/F/(3G/A/B/ | 
 dg fe d/c/B/A/ | e2 dc BA | d2 cB A2 | B2 B2 DG/B/ ||

